assets/Woman lifting weights/Dark/Flat/woman_lifting_weights_flat_dark.svg

<svg width="32" height="32" viewBox="0 0 32 32" fill="none" xmlns="http://www.w3.org/2000/svg">
<path d="M11 30V28H9.10188C9.10188 28 8.57153 28.38 7.18516 29.2C6.87811 29.38 7.04559 30 7.04559 30H11Z" fill="#533566"/>
<path d="M21.0095 30L21 28H22.8917C22.8917 28 23.2511 28.38 24.8118 29.2C25.1239 29.36 24.9537 30 24.9537 30H21.0095Z" fill="#533566"/>
<path d="M14.5 14.8779L12.3229 16L7.86116 7.01291C7.60732 6.49652 7.80259 6.34757 8.3005 6.08937L8.54457 6.02979C8.05642 6.27805 10.8584 7.53923 10.0969 6L14.5 14.8779Z" fill="#573739"/>
<path d="M17.5 14.8779L19.6771 16L24.1388 7.01291C24.3927 6.49652 24.1974 6.34757 23.6995 6.08937L23.4554 6.02979C23.9436 6.27805 21.1416 7.53923 21.9031 6L17.5 14.8779Z" fill="#573739"/>
<path d="M21.1552 13.4835C21.208 13.3624 21.1592 13.2215 21.0427 13.1592L18.5 11.8L18.0001 14L18.0401 14.07C17.4501 13.7 16.7501 13.47 16.0001 13.47C15.2601 13.47 14.5701 13.69 13.9801 14.06L14.0101 14L13.55 11.8L10.9597 13.16C10.8421 13.2217 10.7924 13.3633 10.8454 13.4851C11.1376 14.1554 12 16.2287 12 17.35V22H20V17.35C20 16.2278 20.8637 14.1521 21.1552 13.4835Z" fill="#8B62BF"/>
<path d="M23.05 20L19.93 22H19.88H12.17H12.12L9 20L9.45 23.17L10 24.1C12.26 25.45 13.39 26 16.02 26C18.65 26 19.74 25.3 22 23.94L22.5 23.01L23.05 20Z" fill="#9B9B9B"/>
<path d="M9.13993 28L8.67993 22.96H11.6099L11 28H9.13993Z" fill="#573739"/>
<path d="M21 28L20.47 22.96H23.24L22.86 28H21Z" fill="#573739"/>
<path d="M2 6.13C2 6.0582 2.0582 6 2.13 6H3V7H2.13C2.0582 7 2 6.9418 2 6.87V6.13Z" fill="#9B9B9B"/>
<path d="M26 6H6V7H26V6Z" fill="#9B9B9B"/>
<path d="M29.87 6C29.9418 6 30 6.0582 30 6.13V6.87C30 6.9418 29.9418 7 29.87 7H29V6H29.87Z" fill="#9B9B9B"/>
<path d="M8.51515 23H11.4747C11.7576 23 11.9899 22.7677 12 22.4848V21C12 19.899 11.101 19 10 19C8.89899 19 8 19.899 8 21V22.4848C8 22.7677 8.23232 23 8.51515 23Z" fill="#533566"/>
<path d="M20.106 23H22.9038C23.2371 23 23.5098 22.7273 23.4997 22.3939V21C23.4997 19.899 22.6008 19 21.4999 19C20.3989 19 19.5 19.899 19.5 21V22.3939C19.5 22.7273 19.7727 23 20.106 23Z" fill="#533566"/>
<path d="M9.75 5.375C9.75 5.16789 9.58211 5 9.375 5C9.16789 5 9 5.16789 9 5.375V5.5H8.99251C8.95778 5.32881 8.80644 5.19995 8.625 5.19995C8.44356 5.19995 8.29222 5.32881 8.25749 5.5H8.22866C8.17718 5.35435 8.03828 5.25 7.875 5.25C7.66789 5.25 7.5 5.41789 7.5 5.625V6.125C7.5 6.33211 7.66789 6.5 7.875 6.5C8.03828 6.5 8.17718 6.39565 8.22866 6.25H8.25082C8.26371 6.44543 8.42631 6.59995 8.625 6.59995C8.82369 6.59995 8.98629 6.44543 8.99918 6.25L9 6.375C9 6.58211 9.16789 6.75 9.375 6.75C9.58211 6.75 9.75 6.58211 9.75 6.375C9.75 6.58211 9.91789 6.75 10.125 6.75C10.3321 6.75 10.5 6.58211 10.5 6.375V5.625C10.5 5.41789 10.3321 5.25 10.125 5.25C9.96172 5.25 9.82282 5.35435 9.77134 5.5H9.75V5.375Z" fill="#573739"/>
<path d="M22.25 5.375C22.25 5.16789 22.4179 5 22.625 5C22.8321 5 23 5.16789 23 5.375V5.5H23.0075C23.0422 5.32881 23.1936 5.19995 23.375 5.19995C23.5564 5.19995 23.7078 5.32881 23.7425 5.5H23.7713C23.8228 5.35435 23.9617 5.25 24.125 5.25C24.3321 5.25 24.5 5.41789 24.5 5.625V6.125C24.5 6.33211 24.3321 6.5 24.125 6.5C23.9617 6.5 23.8228 6.39565 23.7713 6.25H23.7492C23.7363 6.44543 23.5737 6.59995 23.375 6.59995C23.1763 6.59995 23.0137 6.44543 23.0008 6.25L23 6.375C23 6.58211 22.8321 6.75 22.625 6.75C22.4179 6.75 22.25 6.58211 22.25 6.375C22.25 6.58211 22.0821 6.75 21.875 6.75C21.6679 6.75 21.5 6.58211 21.5 6.375V5.625C21.5 5.41789 21.6679 5.25 21.875 5.25C22.0383 5.25 22.1772 5.35435 22.2287 5.5H22.25V5.375Z" fill="#573739"/>
<path d="M10.625 7.5C10.4179 7.5 10.25 7.33211 10.25 7.125C10.25 6.91789 10.4179 6.75 10.625 6.75C10.8321 6.75 11 6.91789 11 7.125C11 7.33211 10.8321 7.5 10.625 7.5Z" fill="#422426"/>
<path d="M21.375 7.5C21.5821 7.5 21.75 7.33211 21.75 7.125C21.75 6.91789 21.5821 6.75 21.375 6.75C21.1679 6.75 21 6.91789 21 7.125C21 7.33211 21.1679 7.5 21.375 7.5Z" fill="#422426"/>
<path d="M5.9 2C5.40294 2 5 2.40294 5 2.9V4.4C5 3.90294 4.59706 3.5 4.1 3.5H3.9C3.40294 3.5 3 3.90294 3 4.4V8.6C3 9.09706 3.40294 9.5 3.9 9.5H4.1C4.59706 9.5 5 9.09706 5 8.6V10.1C5 10.5971 5.40294 11 5.9 11H6.1C6.59706 11 7 10.5971 7 10.1V2.9C7 2.40294 6.59706 2 6.1 2H5.9Z" fill="#533566"/>
<path d="M25.9 2C25.4029 2 25 2.40294 25 2.9V10.1C25 10.5971 25.4029 11 25.9 11H26.1C26.5971 11 27 10.5971 27 10.1V8.6C27 9.09706 27.4029 9.5 27.9 9.5H28.1C28.5971 9.5 29 9.09706 29 8.6V4.4C29 3.90294 28.5971 3.5 28.1 3.5H27.9C27.4029 3.5 27 3.90294 27 4.4V2.9C27 2.40294 26.5971 2 26.1 2H25.9Z" fill="#533566"/>
<path d="M19.4906 12.6781C19.4906 12.9052 19.4341 13.1149 19.3398 13.2984C19.3116 13.3595 19.3116 13.4294 19.3493 13.4993C19.4435 13.6828 19.5 13.8925 19.5 14.1109C19.5 14.8797 18.8311 15.5 18.002 15.5H17.3237C17.0128 15.5 17.0128 15.2641 17.0128 15.2641L16.9939 14.5827L15.138 14.5739C15.138 14.5739 15.1285 15.0894 15.1285 15.2641C15.1285 15.4651 14.9778 15.5 14.7234 15.5H13.998C13.1689 15.5 12.5 14.8797 12.5 14.1109C12.5 13.8925 12.5565 13.6828 12.6507 13.4993C12.679 13.4294 12.679 13.3595 12.6507 13.2984C12.5565 13.1062 12.5 12.8965 12.5 12.6781C12.5 12.3898 12.5942 12.119 12.7544 11.8918C12.9145 11.6647 12.9993 11.3938 12.9993 11.123V11.1142C12.9993 10.328 13.6871 9.69019 14.535 9.69019C14.6104 9.69019 14.6952 9.65524 14.7423 9.59409C15.0249 9.23589 15.4771 9 15.9953 9C16.5135 9 16.9657 9.23589 17.2483 9.59409C17.2954 9.65524 17.3708 9.69019 17.4556 9.69019C18.3035 9.69019 18.9913 10.328 18.9913 11.1142V11.123C18.9913 11.4026 19.076 11.6647 19.2362 11.8918C19.3964 12.119 19.4906 12.3898 19.4906 12.6781Z" fill="black"/>
<path d="M14.5 12.8199C14.5 13.2342 14.1642 13.5699 13.75 13.5699C13.3358 13.5699 13 13.2342 13 12.8199C13 12.4057 13.3358 12.0699 13.75 12.0699C14.1642 12.0699 14.5 12.4057 14.5 12.8199Z" fill="#4E3233"/>
<path d="M19 12.8199C19 13.2342 18.6642 13.5699 18.25 13.5699C17.8358 13.5699 17.5 13.2342 17.5 12.8199C17.5 12.4057 17.8358 12.0699 18.25 12.0699C18.6642 12.0699 19 12.4057 19 12.8199Z" fill="#4E3233"/>
<path d="M13.4429 12.1396C13.4996 11.7803 13.7224 11.6331 13.8198 11.58C13.8298 11.575 13.8373 11.5725 13.8448 11.57C13.8523 11.5675 13.8598 11.565 13.8698 11.56C14.1298 11.44 14.3398 11.23 14.4498 10.96L14.4898 10.87C14.5298 10.77 14.6598 10.76 14.7198 10.84C15.0698 11.35 15.6498 11.66 16.2798 11.66H17.8498C17.9335 11.66 18.3366 11.7031 18.3932 12.2307L18.34 13.4699C18.29 14.8599 17.22 15.7899 15.92 15.7899C14.63 15.7899 13.56 14.8599 13.5 13.4699L13.4429 12.1396Z" fill="#573739"/>
<path d="M17.8199 12.77C17.9299 12.85 17.9299 13 17.8399 13.09L17.5999 13.3C17.5545 13.2853 17.5097 13.2712 17.4653 13.2575C17.4645 13.2572 17.4637 13.257 17.4629 13.2567C17.3945 13.2356 17.327 13.2154 17.2599 13.1959C17.1587 13.1663 17.0584 13.138 16.9572 13.1094L16.957 13.1094C16.9446 13.1059 16.9322 13.1024 16.9198 13.0989C16.8182 13.0702 16.7155 13.041 16.6099 13.01C16.6938 12.8781 16.8101 12.757 16.9501 12.6811C16.975 12.6676 17.0006 12.6556 17.0269 12.6452C17.049 12.6364 17.0716 12.6288 17.0947 12.6224C17.0947 12.6224 17.0947 12.6224 17.0947 12.6224C17.1474 12.6079 17.2026 12.6 17.2599 12.6C17.2912 12.6 17.3227 12.6014 17.3542 12.6043C17.377 12.6064 17.3997 12.6093 17.4224 12.6129C17.5516 12.6332 17.6771 12.6775 17.7801 12.7429C17.7938 12.7515 17.807 12.7606 17.8199 12.77ZM14.1853 12.77C14.0753 12.85 14.0753 13 14.1653 13.09L14.4053 13.3C14.4501 13.285 14.4947 13.2707 14.5393 13.2567C14.5401 13.2564 14.5409 13.2562 14.5417 13.2559C14.6097 13.2346 14.6775 13.2143 14.7453 13.1946C14.8459 13.1652 14.9465 13.1371 15.048 13.1087C15.0605 13.1053 15.073 13.1018 15.0854 13.0983C15.1874 13.0698 15.2904 13.0408 15.3953 13.01C15.3113 12.8781 15.1951 12.757 15.055 12.6811C15.0302 12.6676 15.0046 12.6556 14.9782 12.6452C14.9567 12.6366 14.9347 12.6292 14.9123 12.6229C14.9123 12.6229 14.9123 12.6229 14.9123 12.6229C14.859 12.6081 14.8032 12.6 14.7453 12.6C14.714 12.6 14.6824 12.6014 14.6509 12.6043C14.6282 12.6064 14.6054 12.6093 14.5828 12.6129C14.4517 12.6335 14.3244 12.6788 14.2205 12.7457C14.2085 12.7535 14.1967 12.7616 14.1853 12.77Z" fill="black"/>
<path d="M14.3224 12.2798L14.3237 12.2796L14.3338 12.2784C14.3433 12.2773 14.3584 12.276 14.3781 12.2751C14.4176 12.2733 14.4753 12.2735 14.5449 12.2819C14.6841 12.2986 14.8685 12.3475 15.0508 12.4765C15.1126 12.5202 15.1982 12.5055 15.2419 12.4437C15.2856 12.3819 15.2709 12.2963 15.2091 12.2526C14.9814 12.0915 14.7508 12.0304 14.5775 12.0096C14.4909 11.9992 14.418 11.9988 14.3659 12.0011C14.3398 12.0023 14.3189 12.0042 14.3039 12.0058C14.2964 12.0066 14.2903 12.0074 14.2859 12.008L14.2804 12.0088L14.2786 12.0091L14.2775 12.0093C14.2028 12.0217 14.1523 12.0924 14.1647 12.1671C14.1772 12.2417 14.2477 12.2922 14.3224 12.2798Z" fill="black"/>
<path d="M17.864 12.194C17.8802 12.12 17.8333 12.0469 17.7593 12.0306L17.7582 12.0304L17.7564 12.03L17.751 12.0289C17.7467 12.0281 17.7407 12.027 17.7333 12.0259C17.7185 12.0235 17.6978 12.0206 17.672 12.0182C17.6205 12.0134 17.5482 12.0103 17.4614 12.0166C17.288 12.0291 17.0551 12.079 16.8171 12.2285C16.753 12.2687 16.7337 12.3533 16.7739 12.4175C16.8142 12.4816 16.8988 12.5009 16.9629 12.4607C17.155 12.3401 17.3421 12.3001 17.4811 12.2901C17.5507 12.2851 17.6077 12.2876 17.6465 12.2912L17.7013 12.2986C17.775 12.3145 17.8478 12.2677 17.864 12.194Z" fill="black"/>
<path d="M14.2532 13.1896C14.3271 12.9032 14.5766 12.7 14.8815 12.7C15.1956 12.7 15.4636 12.9217 15.5098 13.2174C15.5282 13.2913 15.4728 13.3467 15.4081 13.3467H14.3733C14.2994 13.3467 14.2347 13.2728 14.2532 13.1896Z" fill="white"/>
<path d="M17.7602 13.1896C17.6862 12.9032 17.4368 12.7 17.1319 12.7C16.8177 12.7 16.5498 12.9217 16.5036 13.2174C16.4851 13.2913 16.5406 13.3467 16.6052 13.3467H17.6401C17.714 13.3467 17.7786 13.2728 17.7602 13.1896Z" fill="white"/>
<path d="M14.5674 13.236C14.5674 13.005 14.7522 12.8202 14.9832 12.8202C15.2049 12.8202 15.3897 13.005 15.3989 13.236C15.3989 13.2729 15.3897 13.3099 15.3805 13.3468H14.5859C14.5766 13.3099 14.5674 13.2729 14.5674 13.236Z" fill="#7D4533"/>
<path d="M17.4461 13.236C17.4461 13.005 17.2613 12.8202 17.0303 12.8202C16.8085 12.8202 16.6237 13.005 16.6145 13.236C16.6145 13.2729 16.6237 13.3099 16.633 13.3468L17.4276 13.3468C17.4368 13.3099 17.4461 13.2729 17.4461 13.236Z" fill="#7D4533"/>
<path d="M14.9739 12.9956C15.1125 12.9956 15.2141 13.1065 15.2141 13.2358C15.2141 13.2728 15.2049 13.3097 15.1771 13.3467H14.7614C14.7429 13.3097 14.7336 13.2728 14.7336 13.2358C14.7336 13.0972 14.8445 12.9956 14.9739 12.9956Z" fill="black"/>
<path d="M17.0398 12.9958C16.9012 12.9958 16.7996 13.1067 16.7996 13.2361C16.7996 13.273 16.8088 13.31 16.8365 13.3469H17.2523C17.2708 13.31 17.28 13.273 17.28 13.2361C17.28 13.0975 17.1691 12.9958 17.0398 12.9958Z" fill="black"/>
<path d="M15.8199 13.135L15.5599 13.975C15.5099 14.145 15.6399 14.325 15.8099 14.325H16.1899C16.3699 14.325 16.4999 14.155 16.4399 13.975L16.1799 13.135C16.1399 12.955 15.8799 12.955 15.8199 13.135Z" fill="#3D2123"/>
<path d="M15.9929 14.6807C15.7528 14.6807 15.5395 14.6207 15.3528 14.5107C15.2906 14.4707 15.2194 14.5507 15.2639 14.6207C15.4239 14.8907 15.6906 15.0707 16.0017 15.0707C16.3129 15.0707 16.5796 14.8907 16.7396 14.6207C16.7752 14.5507 16.7129 14.4707 16.6507 14.5107C16.4462 14.6207 16.2329 14.6807 15.9929 14.6807Z" fill="#290118"/>
<path d="M14.9084 13.0691C14.9084 13.1096 14.8755 13.1425 14.8349 13.1425C14.7944 13.1425 14.7615 13.1096 14.7615 13.0691C14.7615 13.0285 14.7944 12.9956 14.8349 12.9956C14.8755 12.9956 14.9084 13.0285 14.9084 13.0691Z" fill="white"/>
<path d="M16.9831 13.0693C16.9831 13.1099 16.9502 13.1428 16.9096 13.1428C16.8691 13.1428 16.8362 13.1099 16.8362 13.0693C16.8362 13.0287 16.8691 12.9958 16.9096 12.9958C16.9502 12.9958 16.9831 13.0287 16.9831 13.0693Z" fill="white"/>
</svg>

<svg xmlns="http://www.w3.org/2000/svg" width="32" height="32" fill="none"><path fill="#533566" d="M11 30v-2H9.102s-.53.38-1.917 1.2c-.307.18-.14.8-.14.8H11ZM21.01 30 21 28h1.892s.36.38 1.92 1.2c.312.16.142.8.142.8h-3.945Z"/><path fill="#573739" d="M14.5 14.878 12.323 16 7.86 7.013c-.254-.516-.058-.665.44-.924l.244-.06c-.489.25 2.313 1.51 1.552-.029l4.403 8.878ZM17.5 14.878 19.677 16l4.462-8.987c.254-.516.058-.665-.44-.924l-.244-.06c.489.25-2.313 1.51-1.552-.029L17.5 14.878Z"/><path fill="#8B62BF" d="M21.155 13.483a.253.253 0 0 0-.112-.324L18.5 11.8 18 14l.04.07a3.84 3.84 0 0 0-2.04-.6c-.74 0-1.43.22-2.02.59l.03-.06-.46-2.2-2.59 1.36a.253.253 0 0 0-.115.325c.293.67 1.155 2.744 1.155 3.865V22h8v-4.65c0-1.122.864-3.198 1.155-3.867Z"/><path fill="#9B9B9B" d="m23.05 20-3.12 2h-7.81L9 20l.45 3.17.55.93c2.26 1.35 3.39 1.9 6.02 1.9 2.63 0 3.72-.7 5.98-2.06l.5-.93.55-3.01Z"/><path fill="#573739" d="m9.14 28-.46-5.04h2.93L11 28H9.14ZM21 28l-.53-5.04h2.77L22.86 28H21Z"/><path fill="#9B9B9B" d="M2 6.13A.13.13 0 0 1 2.13 6H3v1h-.87A.13.13 0 0 1 2 6.87v-.74ZM26 6H6v1h20V6ZM29.87 6a.13.13 0 0 1 .13.13v.74a.13.13 0 0 1-.13.13H29V6h.87Z"/><path fill="#533566" d="M8.515 23h2.96a.533.533 0 0 0 .525-.515V21c0-1.101-.899-2-2-2s-2 .899-2 2v1.485c0 .283.232.515.515.515ZM20.106 23h2.798a.593.593 0 0 0 .596-.606V21c0-1.101-.9-2-2-2-1.101 0-2 .899-2 2v1.394c0 .333.273.606.606.606Z"/><path fill="#573739" d="M9.75 5.375a.375.375 0 1 0-.75 0V5.5h-.007a.375.375 0 0 0-.736 0H8.23a.375.375 0 0 0-.729.125v.5a.375.375 0 0 0 .729.125h.022a.375.375 0 0 0 .748 0L9 6.375a.375.375 0 1 0 .75 0 .375.375 0 1 0 .75 0v-.75a.375.375 0 0 0-.729-.125H9.75v-.125ZM22.25 5.375a.375.375 0 0 1 .75 0V5.5h.008a.375.375 0 0 1 .735 0h.028a.375.375 0 0 1 .729.125v.5a.375.375 0 0 1-.729.125h-.022a.375.375 0 0 1-.748 0L23 6.375a.375.375 0 0 1-.75 0 .375.375 0 0 1-.75 0v-.75a.375.375 0 0 1 .729-.125h.021v-.125Z"/><path fill="#422426" d="M10.625 7.5a.375.375 0 1 1 0-.75.375.375 0 0 1 0 .75ZM21.375 7.5a.375.375 0 1 0 0-.75.375.375 0 0 0 0 .75Z"/><path fill="#533566" d="M5.9 2a.9.9 0 0 0-.9.9v1.5a.9.9 0 0 0-.9-.9h-.2a.9.9 0 0 0-.9.9v4.2a.9.9 0 0 0 .9.9h.2a.9.9 0 0 0 .9-.9v1.5a.9.9 0 0 0 .9.9h.2a.9.9 0 0 0 .9-.9V2.9a.9.9 0 0 0-.9-.9h-.2ZM25.9 2a.9.9 0 0 0-.9.9v7.2a.9.9 0 0 0 .9.9h.2a.9.9 0 0 0 .9-.9V8.6a.9.9 0 0 0 .9.9h.2a.9.9 0 0 0 .9-.9V4.4a.9.9 0 0 0-.9-.9h-.2a.9.9 0 0 0-.9.9V2.9a.9.9 0 0 0-.9-.9h-.2Z"/><path fill="#000" d="M19.49 12.678c0 .227-.056.437-.15.62a.218.218 0 0 0 .01.201c.093.184.15.393.15.612 0 .769-.669 1.389-1.498 1.389h-.678c-.311 0-.311-.236-.311-.236l-.02-.681-1.855-.01s-.01.516-.01.691c0 .201-.15.236-.405.236h-.725c-.83 0-1.498-.62-1.498-1.39 0-.217.056-.427.15-.61a.248.248 0 0 0 0-.202 1.408 1.408 0 0 1-.15-.62c0-.288.094-.559.254-.786a1.34 1.34 0 0 0 .245-.769v-.009c0-.786.688-1.424 1.536-1.424a.27.27 0 0 0 .207-.096A1.588 1.588 0 0 1 15.995 9c.519 0 .97.236 1.253.594a.257.257 0 0 0 .208.096c.848 0 1.535.638 1.535 1.424v.009c0 .28.085.542.245.769.16.227.255.498.255.786Z"/><path fill="#4E3233" d="M14.5 12.82a.75.75 0 1 1-1.5 0 .75.75 0 0 1 1.5 0ZM19 12.82a.75.75 0 1 1-1.5 0 .75.75 0 0 1 1.5 0Z"/><path fill="#573739" d="M13.443 12.14a.735.735 0 0 1 .377-.56c.01-.005.017-.008.025-.01a1.134 1.134 0 0 0 .605-.61l.04-.09c.04-.1.17-.11.23-.03.35.51.93.82 1.56.82h1.57c.083 0 .487.043.543.57l-.053 1.24c-.05 1.39-1.12 2.32-2.42 2.32-1.29 0-2.36-.93-2.42-2.32l-.057-1.33Z"/><path fill="#000" d="M17.82 12.77c.11.08.11.23.02.32l-.24.21-.135-.043h-.002a12.907 12.907 0 0 0-.203-.061l-.303-.087-.037-.01a31.271 31.271 0 0 1-.31-.089.957.957 0 0 1 .34-.329.705.705 0 0 1 .145-.059.62.62 0 0 1 .165-.022 1.03 1.03 0 0 1 .52.143.695.695 0 0 1 .04.027Zm-3.635 0c-.11.08-.11.23-.02.32l.24.21c.045-.015.09-.03.134-.043l.003-.001c.068-.021.136-.042.203-.061.1-.03.202-.058.303-.086a24.42 24.42 0 0 0 .347-.099.957.957 0 0 0-.34-.329.688.688 0 0 0-.143-.058.622.622 0 0 0-.167-.023 1.031 1.031 0 0 0-.524.146.73.73 0 0 0-.036.024ZM14.322 12.28h.002l.01-.002a1.018 1.018 0 0 1 .211.004 1.1 1.1 0 0 1 .506.194.137.137 0 0 0 .158-.223 1.374 1.374 0 0 0-.923-.245h-.006l-.001.001h-.002a.137.137 0 0 0 .045.27ZM17.864 12.194a.137.137 0 0 0-.105-.163l-.003-.001-.005-.001a1.282 1.282 0 0 0-.29-.012 1.397 1.397 0 0 0-.644.212.137.137 0 0 0 .146.232 1.123 1.123 0 0 1 .683-.17l.055.008a.137.137 0 0 0 .163-.105Z"/><path fill="#fff" d="M14.253 13.19a.644.644 0 0 1 .629-.49c.314 0 .582.222.628.517.018.074-.037.13-.102.13h-1.035a.128.128 0 0 1-.12-.157ZM17.76 13.19a.644.644 0 0 0-.628-.49.629.629 0 0 0-.628.517c-.019.074.037.13.101.13h1.035a.128.128 0 0 0 .12-.157Z"/><path fill="#7D4533" d="M14.567 13.236c0-.231.185-.416.416-.416.222 0 .407.185.416.416 0 .037-.01.074-.018.11h-.795a.46.46 0 0 1-.019-.11ZM17.446 13.236a.414.414 0 0 0-.416-.416.426.426 0 0 0-.416.416c0 .037.01.074.019.11h.795c.009-.036.018-.073.018-.11Z"/><path fill="#000" d="M14.974 12.996c.139 0 .24.11.24.24 0 .037-.01.074-.037.11h-.416a.239.239 0 0 1 .213-.351ZM17.04 12.996c-.139 0-.24.11-.24.24 0 .037.009.074.037.11h.415a.239.239 0 0 0-.213-.351Z"/><path fill="#3D2123" d="m15.82 13.135-.26.84c-.05.17.08.35.25.35h.38c.18 0 .31-.17.25-.35l-.26-.84c-.04-.18-.3-.18-.36 0Z"/><path fill="#290118" d="M15.993 14.68c-.24 0-.454-.06-.64-.17-.062-.04-.134.04-.09.11.16.27.428.45.739.45.31 0 .578-.18.738-.45.035-.07-.027-.15-.09-.11-.204.11-.417.17-.657.17Z"/><path fill="#fff" d="M14.908 13.07a.073.073 0 1 1-.147-.001.073.073 0 0 1 .147 0ZM16.983 13.07a.073.073 0 1 1-.147 0 .073.073 0 0 1 .147 0Z"/></svg>
